src/main/resources/icons/JetgroovyIcons/icons/groovy/gant_target.svg

<svg xmlns="http://www.w3.org/2000/svg" width="16" height="16" viewBox="0 0 16 16">
  <g fill="none" fill-rule="evenodd">
    <path fill="#62B543" fill-opacity=".6" d="M14.277084,11.10162 C14.1299262,11.062265 13.9783099,11.0338192 13.8231549,11.0172019 C13.9376169,10.6995745 14,10.3570724 14,10 C14,8.34314575 12.6568542,7 11,7 C9.34314575,7 8,8.34314575 8,10 C8,10.3570724 8.06238313,10.6995745 8.17684515,11.0172019 C6.67196436,11.1783757 5.5,12.4523244 5.5,14 C5.5,14.1914147 5.5179269,14.3786424 5.55219334,14.5600956 C2.89337091,13.5675729 1,11.0049012 1,8 C1,4.134 4.134,1 8,1 C11.866,1 15,4.134 15,8 C15,9.11377323 14.7398829,10.1667916 14.277084,11.10162 Z"/>
    <path fill="#231F20" fill-opacity=".7" d="M8.00075279,10.0678794 C8.00799014,10.3938737 8.06722828,10.7070423 8.17050006,10.999418 C8.14839367,10.9998048 8.12618927,11 8.10388729,11 C6.28897017,11 5.0956,9.70718232 5.0956,8.01657459 L5.0956,8 C5.0956,6.37569061 6.33869392,5 8.08731271,5 C9.09836243,5 9.71990939,5.28176796 10.3165945,5.78729282 L9.67018564,6.55801105 C9.22267182,6.18508287 8.7834453,5.94475138 8.04587624,5.94475138 C6.97681547,5.94475138 6.16466077,6.87292818 6.16466077,7.98342541 L6.16466077,8 C6.16466077,9.14701247 6.89197522,10.0030992 8.00075279,10.0678794 Z M8.370163,8.55524862 L8.05416354,8.55524862 L8.05416354,7.66022099 L9.12221518,7.66022099 C8.81677157,7.90566865 8.56040422,8.20969449 8.370163,8.55524862 Z"/>
    <circle cx="11" cy="10" r="2" fill="#40B6E0" fill-opacity=".6"/>
    <circle cx="13.5" cy="14" r="2" fill="#40B6E0" fill-opacity=".6"/>
    <circle cx="8.5" cy="14" r="2" fill="#40B6E0" fill-opacity=".6"/>
  </g>
</svg>

<svg xmlns="http://www.w3.org/2000/svg" width="16" height="16" viewBox="0 0 16 16"><rect id="frame" width="16" height="16" fill="none"/><g fill="none" fill-rule="evenodd"><path fill="#62B543" fill-opacity=".6" d="M14.277 11.102a2.988 2.988 0 0 0-.454-.085 3 3 0 1 0-5.646 0 3 3 0 0 0-2.625 3.543 7 7 0 1 1 8.725-3.458z"/><path fill="#231F20" fill-opacity=".7" d="M8 10.068c.008.326.067.639.17.931L8.105 11c-1.815 0-3.008-1.293-3.008-2.983V8c0-1.624 1.243-3 2.991-3 1.011 0 1.633.282 2.23.787l-.647.771c-.447-.373-.887-.613-1.624-.613-1.07 0-1.881.928-1.881 2.038V8c0 1.147.727 2.003 1.836 2.068zm.37-1.513h-.316V7.66h1.068c-.305.246-.562.55-.752.895z"/><circle cx="11" cy="10" r="2" fill="#40B6E0" fill-opacity=".6"/><circle cx="13.5" cy="14" r="2" fill="#40B6E0" fill-opacity=".6"/><circle cx="8.5" cy="14" r="2" fill="#40B6E0" fill-opacity=".6"/></g></svg>
